svg/clockface/clockfacesquaresolid/clock_11_10.svg

<?xml version="1.0" encoding="UTF-8" standalone="no"?>
<svg
   height="1000"
   width="1000"
   version="1.1"
   viewBox="0 0 1000 1000"
   id="svg7"
   sodipodi:docname="clock_11_10.svg"
   xmlns:inkscape="http://www.inkscape.org/namespaces/inkscape"
   xmlns:sodipodi="http://sodipodi.sourceforge.net/DTD/sodipodi-0.dtd"
   xmlns="http://www.w3.org/2000/svg"
   xmlns:svg="http://www.w3.org/2000/svg">
  <defs
     id="defs11" />
  <sodipodi:namedview
     id="namedview9"
     pagecolor="#ffffff"
     bordercolor="#000000"
     borderopacity="0.25"
     inkscape:showpageshadow="2"
     inkscape:pageopacity="0.0"
     inkscape:pagecheckerboard="0"
     inkscape:deskcolor="#d1d1d1" />
  <path
     id="path15"
     style="color:#000000;fill:#000000;stroke-width:60;-inkscape-stroke:none"
     d="M 129 129 L 129 159 L 129 869 L 869 869 L 869 129 L 129 129 z M 425 340.0957 A 30 30 0 0 1 450.98047 355.0957 L 510.98047 459.01953 L 684.18555 359.01953 A 30 30 0 0 1 725.16602 370 A 30 30 0 0 1 714.18555 410.98047 L 515 525.98047 A 30.003 30.003 0 0 1 474.01953 515 L 399.01953 385.0957 A 30 30 0 0 1 395.25586 374.01172 A 30 30 0 0 1 410 344.11523 A 30 30 0 0 1 425 340.0957 z " />
</svg>

<svg xmlns="http://www.w3.org/2000/svg" width="1000" height="1000"><path d="M129 129v740h740V129H129zm296 211.096a30 30 0 0 1 25.98 15l60 103.924 173.206-100a30 30 0 0 1 40.98 10.98 30 30 0 0 1-10.98 40.98L515 525.98A30.003 30.003 0 0 1 474.02 515l-75-129.904a30 30 0 0 1-3.764-11.084A30 30 0 0 1 410 344.115a30 30 0 0 1 15-4.02z" style="-inkscape-stroke:none" stroke-width="60"/></svg>
